X:74
T:What are the odds?
C:Tradformer + Sturm
M:6/8
K:Dmaj
|:Add dcd|efg ~a3|fed cAG|AB=c ABc|Add dcd|efg aba|fed cAG|1ABc d2A:|2ABc d2e||
fga fed|fgf ecA|B2B c2c|d2d e2e|fga fed|1
fgf ecA|BdB AdA|GFE D2e:|2fgf e=ce|~=c'3 age|gb^c' d'3||

